src/components/Icon/svg-icon/main/add-document.svg

<svg xmlns="http://www.w3.org/2000/svg" width="24" height="24"><path fill="#677078" d="M14 2H4v20h16V8l-6-6zm2 14h-3v3h-2v-3H8v-2h3v-3h2v3h3v2zm-3-7V3.5L18.5 9H13z"/></svg>

<svg xmlns="http://www.w3.org/2000/svg" width="24" height="24" viewBox="0 0 24 24">
  <path fill="#677078" d="M14,2 L4,2 L4,22 L20,22 L20,8 L14,2 Z M16,16 L13,16 L13,19 L11,19 L11,16 L8,16 L8,14 L11,14 L11,11 L13,11 L13,14 L16,14 L16,16 Z M13,9 L13,3.5 L18.5,9 L13,9 Z"/>
</svg>
